X: 33
T:Lass in ye Yellow Coat,The. JBa.32
T:Lass with the Yellow Cottie,aka. JBa.32
M:2/2
L:1/8
Q:180
S:Joseph Barnes MS,Carlisle,1762.
R:reel
O:England
A:Carlisle
N:Key signature is  two sharps, but both F - low and high. 1 - note added
N:- see bar 2..CGr
Z:vmp.C.Graebe.
K:E minor
"no time sig.See note"B | G2(GB) defd | edgd edef |\
 G2 GB def"1"d | (e/f/g) dB AG F2  :|!
|:gabg afge | (Bddf) fged | gabg afge | (e/f/g) dB AF E2 :|]
